X: 12849
T: Fergie The Poacher
R: jig
M: 6/8
K: Gmajor
|:D2E G2B|dBd e2d|D2E G2B|AGE E3|
D2E G2B|dBd e2f|ege d2B|AGG G3:|
|:g2f e2f|edB d2B|g2f e2d|BAA A3|
g2f e2f|edB d2B|ege d2B|AGG G3:|

